src/assets/home/homecover/lines-button.svg

<svg fill="none" height="138" viewBox="0 0 343 138" width="300" xmlns="http://www.w3.org/2000/svg" xmlns:xlink="http://www.w3.org/1999/xlink"><pattern id="a" height="1" patternContentUnits="objectBoundingBox" width="1"><image height="37" transform="scale(.0416667 .027027)" width="24" xlink:href="data:image/png;base64,iVBORw0KGgoAAAANSUhEUgAAABgAAAAlCAYAAABYkymLAAACZElEQVRIibXX34tVVRjG8c8ZJ2381ZSFQz8wkyLCQDGVLjIqq5v0Ki9EgiCim/6P/o6uuyoS8kYUQcxUAi0qKSVtROkXaIyV4+PF2hNy2uectcczD2zYZ+29nu9+1/uud+/TS6JS92M9VuBn3KyZNFnrjik8g3X4tRYw0QGwEtuwGw/UTuoSwSo8i+cbWJW6RPAgNuBhrFkKwGMNYApPqYy+C2ADNipLtVmpqLEBppUKoqz/i3h8XIAeXsHWu8a24IlxAe7D60qJLmga2zEzDsALjXl/Ut/Cq/cKeBQfKLXfr+fwEh5aLGA19ipPOjXgnt3Yryxju5K0HRNJDiQ5n9H6OsmuJL02rzbzFUneS3KuwjxJbic5nGT7KMBEks1JPkryU6X5gm4lOZTkzcbnP99JPI1HlErZ1azr9LDEtWgZ3lC67CYcwkVK6e1QqmE/1nY07tdOpaVswSe4PYnruIbZBljdigdoBi/jAuZ7SVZjOZ5UyvJ9pf4Xo2s4gs9wEv/L+kySd5J8tYgkH0/yYZJNSZa3VdHC0UuyJ8nRSvO5poL2JVnb7zdoo0myN8k3FYAjSV5LMtnmMwwwleTdJFeHmJ9M8naSZYN8hvWiORxukvZPy/W/cBCfYn6QyahuOouP8X3LtYP4HP8OMxgFuIWj+K5vfA5f4PSI+VUvnJuN0S93jZ3F+Yq5VYB5nMC3ze8bytP/OC4AnFO2PiW5x3BlnIDf8HtzfgOXKud1+vBa+Jqexd9LAfhD6fE/LBXgKs40gLaNd8+AKzilYwRd/h9cxpdKJNURdAH8qeTguiG9p193AFuoocqiARjPAAAAAElFTkSuQmCC"/></pattern><clipPath id="b"><path d="m.75.875h342v137h-342z"/></clipPath><g clip-path="url(#b)"><path clip-rule="evenodd" d="m197.093 29.4979c67.915 30.0453 115.187 71.9651 105.585 93.6301s-72.442 14.872-140.358-15.172c-67.9151-30.0445-115.1876-71.9649-105.5853-93.63 9.6023-21.66513 72.4443-14.872483 140.3583 15.1719z" fill-rule="evenodd" stroke="#e4e4e4" stroke-width="1.267"/><path clip-rule="evenodd" d="m182.194 38.55c51.245-24.4847 99.134-31.08144 106.959-14.7354 7.825 16.346-27.375 49.4514-78.623 73.9378-51.249 24.4866-99.137 31.0836-106.963 14.7356-7.8258-16.3486 27.375-49.45 78.627-73.938z" fill-rule="evenodd" stroke="#e4e4e4" stroke-width="1.267"/><path d="m292.525 108.404h19.1329v29.4709h-19.1329z" fill="url(#a)"/></g></svg>

<svg width="300" height="138" viewBox="0 0 343 138" fill="none" xmlns="http://www.w3.org/2000/svg" xmlns:xlink="http://www.w3.org/1999/xlink">
<g clip-path="url(#clip0_355_85)">
<path fill-rule="evenodd" clip-rule="evenodd" d="M197.093 29.4979C265.008 59.5432 312.28 101.463 302.678 123.128C293.076 144.793 230.236 138 162.32 107.956C94.4049 77.9115 47.1324 35.9911 56.7347 14.326C66.337 -7.33913 129.179 -0.546483 197.093 29.4979Z" stroke="#E4E4E4" stroke-width="1.267"/>
<path fill-rule="evenodd" clip-rule="evenodd" d="M182.194 38.55C233.439 14.0653 281.328 7.46856 289.153 23.8146C296.978 40.1606 261.778 73.266 210.53 97.7524C159.281 122.239 111.393 128.836 103.567 112.488C95.7412 96.1394 130.942 63.038 182.194 38.55Z" stroke="#E4E4E4" stroke-width="1.267"/>
<rect x="292.525" y="108.404" width="19.1329" height="29.4709" fill="url(#pattern0)"/>
</g>
<defs>
<pattern id="pattern0" patternContentUnits="objectBoundingBox" width="1" height="1">
<use xlink:href="#image0_355_85" transform="scale(0.0416667 0.027027)"/>
</pattern>
<clipPath id="clip0_355_85">
<rect width="342" height="137" fill="white" transform="translate(0.75 0.875)"/>
</clipPath>
<image id="image0_355_85" width="24" height="37" xlink:href="data:image/png;base64,iVBORw0KGgoAAAANSUhEUgAAABgAAAAlCAYAAABYkymLAAACZElEQVRIibXX34tVVRjG8c8ZJ2381ZSFQz8wkyLCQDGVLjIqq5v0Ki9EgiCim/6P/o6uuyoS8kYUQcxUAi0qKSVtROkXaIyV4+PF2hNy2uectcczD2zYZ+29nu9+1/uud+/TS6JS92M9VuBn3KyZNFnrjik8g3X4tRYw0QGwEtuwGw/UTuoSwSo8i+cbWJW6RPAgNuBhrFkKwGMNYApPqYy+C2ADNipLtVmpqLEBppUKoqz/i3h8XIAeXsHWu8a24IlxAe7D60qJLmga2zEzDsALjXl/Ut/Cq/cKeBQfKLXfr+fwEh5aLGA19ipPOjXgnt3Yryxju5K0HRNJDiQ5n9H6OsmuJL02rzbzFUneS3KuwjxJbic5nGT7KMBEks1JPkryU6X5gm4lOZTkzcbnP99JPI1HlErZ1azr9LDEtWgZ3lC67CYcwkVK6e1QqmE/1nY07tdOpaVswSe4PYnruIbZBljdigdoBi/jAuZ7SVZjOZ5UyvJ9pf4Xo2s4gs9wEv/L+kySd5J8tYgkH0/yYZJNSZa3VdHC0UuyJ8nRSvO5poL2JVnb7zdoo0myN8k3FYAjSV5LMtnmMwwwleTdJFeHmJ9M8naSZYN8hvWiORxukvZPy/W/cBCfYn6QyahuOouP8X3LtYP4HP8OMxgFuIWj+K5vfA5f4PSI+VUvnJuN0S93jZ3F+Yq5VYB5nMC3ze8bytP/OC4AnFO2PiW5x3BlnIDf8HtzfgOXKud1+vBa+Jqexd9LAfhD6fE/LBXgKs40gLaNd8+AKzilYwRd/h9cxpdKJNURdAH8qeTguiG9p193AFuoocqiARjPAAAAAElFTkSuQmCC"/>
</defs>
</svg>
